svgs/paseo.svg

<svg xmlns="http://www.w3.org/2000/svg" viewBox="0 0 192 192"><path d="m78.289 22.28 15.275 81.603-2.572.223c-1.091 12.659-8.046 22.513-22.881 27.662-14.835 5.149-34.38 16.256-32.369 30.068 5.402 16.433 18.324 18.524 62.188 3.649 43.864-14.874 59.894-16.933 58.377-23.687-2.015-8.969-14.781-38.551-20.512-36.936a28.028 28.028 0 0 0-3.009.883L115.55 16.5Zm15.285 81.649c6.153 2.898 33.163 2.625 39.426 1.869" fill="none" stroke="#000" stroke-width="12" stroke-linecap="round" stroke-linejoin="round"/></svg>

<svg
    xmlns="http://www.w3.org/2000/svg"
    viewBox="0 0 192 192"
    id="vector">
    <path
        id="path"
        d="M 78.289 22.28 L 93.564 103.883 L 90.992 104.106 C 89.901 116.765 82.946 126.619 68.111 131.768 C 53.276 136.917 33.731 148.024 35.742 161.836 C 41.144 178.269 54.066 180.36 97.93 165.485 C 141.794 150.611 157.824 148.552 156.307 141.798 C 154.292 132.829 141.526 103.247 135.795 104.862 C 134.776 105.1 133.771 105.395 132.786 105.745 L 115.55 16.5 Z M 93.574 103.929 C 99.727 106.827 126.737 106.554 133 105.798"
        fill="none"
        stroke="#000000"
        stroke-width="12"
        stroke-linecap="round"
        stroke-linejoin="round"/>
</svg>
